svg/camera_flip.svg

<svg xmlns="http://www.w3.org/2000/svg" viewBox="0 0 24 24"><path d="M20 5h-3l-2-2H9L7 5H4c-1.1 0-2 .9-2 2v12a2 2 0 0 0 2 2h16c1.11 0 2-.89 2-2V7a2 2 0 0 0-2-2M5 12h2.1A4.997 4.997 0 0 1 13 8.1c.76.15 1.43.49 2 .9l-1.44 1.45c-.45-.28-.98-.45-1.56-.45-1.26 0-2.4.8-2.82 2H11l-3 3zm11.91 2c-.55 2.71-3.19 4.45-5.91 3.9a5.4 5.4 0 0 1-2-.9l1.44-1.45c.46.28.99.45 1.56.45 1.27 0 2.41-.8 2.83-2H13l3-3 3 3z"/></svg>

<?xml version="1.0" encoding="UTF-8"?><!DOCTYPE svg PUBLIC "-//W3C//DTD SVG 1.1//EN" "http://www.w3.org/Graphics/SVG/1.1/DTD/svg11.dtd"><svg xmlns="http://www.w3.org/2000/svg" xmlns:xlink="http://www.w3.org/1999/xlink" version="1.1" id="mdi-camera-flip" width="24" height="24" viewBox="0 0 24 24"><path d="M20 5H17L15 3H9L7 5H4C2.9 5 2 5.9 2 7V19C2 20.11 2.9 21 4 21H20C21.11 21 22 20.11 22 19V7C22 5.9 21.11 5 20 5M5 12H7.1C7.65 9.29 10.29 7.55 13 8.1C13.76 8.25 14.43 8.59 15 9L13.56 10.45C13.11 10.17 12.58 10 12 10C10.74 10 9.6 10.8 9.18 12H11L8 15L5 12M16.91 14C16.36 16.71 13.72 18.45 11 17.9C10.25 17.74 9.58 17.41 9 17L10.44 15.55C10.9 15.83 11.43 16 12 16C13.27 16 14.41 15.2 14.83 14H13L16 11L19 14H16.91Z" /></svg>
